svg/fluentui-system-icons/ic_fluent_speaker_settings_24_regular.svg

<svg width="24" height="24" viewBox="0 0 24 24" fill="none" xmlns="http://www.w3.org/2000/svg">
<path d="M14.7041 3.4425C14.8952 3.66821 15 3.95433 15 4.25003V11.4996C14.4591 11.7252 13.9552 12.0217 13.5 12.3776V4.78913L8.52478 8.99985H4.25C3.83579 8.99985 3.5 9.33564 3.5 9.74985V14.2499C3.5 14.6641 3.83579 14.9999 4.25 14.9999H8.52487L11.0119 17.1056C11.004 17.2366 11 17.3686 11 17.5015C11 18.1132 11.0845 18.7052 11.2425 19.2664L7.97513 16.4999H4.25C3.00736 16.4999 2 15.4925 2 14.2499V9.74985C2 8.50721 3.00736 7.49985 4.25 7.49985H7.97522L12.9425 3.29588C13.4694 2.84989 14.2582 2.91554 14.7041 3.4425ZM14.2782 13.9768C14.593 15.0671 13.9386 16.2005 12.837 16.4731L12.2528 16.6176C12.2079 16.9053 12.1846 17.2005 12.1846 17.5013C12.1846 17.816 12.2101 18.1245 12.2592 18.4247L12.7986 18.5546C13.9111 18.8225 14.5725 19.9675 14.2486 21.0651L14.0623 21.6963C14.5014 22.082 15.0019 22.3951 15.5464 22.6179L16.0397 22.0992C16.8283 21.2699 18.1506 21.2702 18.9388 22.0997L19.4375 22.6245C19.9811 22.4042 20.4811 22.094 20.9204 21.7115L20.7223 21.0256C20.4076 19.9354 21.062 18.802 22.1635 18.5294L22.7472 18.385C22.7922 18.0973 22.8155 17.8021 22.8155 17.5013C22.8155 17.1865 22.7899 16.878 22.7409 16.5777L22.2019 16.4479C21.0894 16.18 20.4281 15.0349 20.7519 13.9374L20.9381 13.3065C20.499 12.9208 19.9985 12.6076 19.4539 12.3847L18.9608 12.9033C18.1722 13.7325 16.85 13.7323 16.0617 12.9028L15.5629 12.3779C15.0193 12.5981 14.5194 12.9083 14.0801 13.2907L14.2782 13.9768ZM17.5 19.0013C16.6994 19.0013 16.0504 18.3297 16.0504 17.5013C16.0504 16.6728 16.6994 16.0013 17.5 16.0013C18.3007 16.0013 18.9497 16.6728 18.9497 17.5013C18.9497 18.3297 18.3007 19.0013 17.5 19.0013Z" fill="#212121"/>
</svg>

<svg xmlns="http://www.w3.org/2000/svg" width="24" height="24"><path d="M14.704 3.442c.191.226.296.512.296.808v7.25a6.495 6.495 0 0 0-1.5.878V4.789L8.525 9H4.25a.75.75 0 0 0-.75.75v4.5c0 .415.336.75.75.75h4.275l2.487 2.107a6.576 6.576 0 0 0 .23 2.16L7.976 16.5H4.25A2.25 2.25 0 0 1 2 14.25v-4.5A2.25 2.25 0 0 1 4.25 7.5h3.725l4.968-4.204a1.25 1.25 0 0 1 1.761.147Zm-.426 10.535a2 2 0 0 1-1.441 2.496l-.584.145a5.729 5.729 0 0 0 .006 1.807l.54.13a2 2 0 0 1 1.45 2.51l-.187.631c.44.386.94.7 1.484.922l.494-.519a2 2 0 0 1 2.899 0l.498.526a5.28 5.28 0 0 0 1.483-.913l-.198-.686a2 2 0 0 1 1.441-2.497l.584-.144a5.716 5.716 0 0 0-.006-1.807l-.54-.13a2 2 0 0 1-1.45-2.51l.187-.632a5.282 5.282 0 0 0-1.484-.921l-.493.518a2 2 0 0 1-2.9 0l-.498-.525c-.544.22-1.044.53-1.483.913l.198.686ZM17.5 19c-.8 0-1.45-.671-1.45-1.5 0-.828.65-1.5 1.45-1.5.8 0 1.45.672 1.45 1.5 0 .829-.65 1.5-1.45 1.5Z"/></svg>
